svg/emoji_u1f399.svg

<svg enable-background="new 0 0 128 128" viewBox="0 0 128 128" xmlns="http://www.w3.org/2000/svg" xmlns:xlink="http://www.w3.org/1999/xlink"><radialGradient id="f" cx="64" cy="7.6667" r="63.24" gradientUnits="userSpaceOnUse"><stop stop-color="#9E9E9E" offset="0"/><stop stop-color="#999" offset=".2253"/><stop stop-color="#8C8C8C" offset=".4734"/><stop stop-color="#767676" offset=".7315"/><stop stop-color="#757575" offset=".7448"/><stop stop-color="#6B6B6B" offset=".8952"/><stop stop-color="#616161" offset="1"/></radialGradient><path d="M92,25.78C92,13.75,79.46,4,64,4s-28,9.75-28,21.78v43.56h0.03c-0.02,0.3-0.03,0.59-0.03,0.89 C36,82.25,48.54,92,64,92s28-9.75,28-21.78c0-0.3-0.01-0.59-0.03-0.89H92V25.78z" fill="url(#f)"/><path d="m76.76 108h-25.52c-1.79 0-3.24-1.45-3.24-3.24v-7.52c0-1.79 1.45-3.24 3.24-3.24h25.52c1.79 0 3.24 1.45 3.24 3.24v7.52c0 1.79-1.45 3.24-3.24 3.24z" fill="#546E7A"/><radialGradient id="e" cx="63.667" cy="86.833" r="25.554" gradientUnits="userSpaceOnUse"><stop stop-color="#B0BEC5" offset="0"/><stop stop-color="#A8B7BF" offset=".1888"/><stop stop-color="#91A4AE" offset=".4874"/><stop stop-color="#78909C" offset=".7436"/><stop stop-color="#607D8B" offset="1"/></radialGradient><path d="m72 112h-16c-2.21 0-4-1.79-4-4v-20c0-2.21 1.79-4 4-4h16c2.21 0 4 1.79 4 4v20c0 2.21-1.79 4-4 4z" fill="url(#e)"/><g opacity=".2"><path d="m72 87c0.55 0 1 0.45 1 1v20c0 0.55-0.45 1-1 1h-16c-0.55 0-1-0.45-1-1v-20c0-0.55 0.45-1 1-1h16m0-3h-16c-2.21 0-4 1.79-4 4v20c0 2.21 1.79 4 4 4h16c2.21 0 4-1.79 4-4v-20c0-2.21-1.79-4-4-4z" fill="#424242"/></g><radialGradient id="d" cx="64" cy="123.83" r="32.527" gradientUnits="userSpaceOnUse"><stop stop-color="#90A4AE" offset="0"/><stop stop-color="#8BA0AB" offset=".2042"/><stop stop-color="#7E95A1" offset=".4371"/><stop stop-color="#678290" offset=".6833"/><stop stop-color="#607D8B" offset=".7436"/><stop stop-color="#546E7A" offset=".9931"/></radialGradient><path d="m93.03 118-23.03-2.25v-14.53c0-0.68-0.55-1.22-1.22-1.22h-9.55c-0.68 0-1.22 0.55-1.22 1.22v14.53l-23.04 2.25c-2.27 0.28-2.97 3.71-2.97 6h64c0-2.29-0.7-5.72-2.97-6z" fill="url(#d)"/><g opacity=".2"><path d="m67 103v15.47l2.71 0.26 22.68 2.22c0.01 0.02 0.02 0.03 0.03 0.05h-56.84c0.01-0.02 0.02-0.03 0.03-0.05l22.68-2.22 2.71-0.26v-15.47h6m1.78-3h-9.55c-0.68 0-1.22 0.55-1.22 1.22v14.53l-23.04 2.25c-2.27 0.28-2.97 3.71-2.97 6h64c0-2.28-0.7-5.72-2.97-6l-23.03-2.25v-14.53c0-0.67-0.55-1.22-1.22-1.22z" fill="#424242"/></g><defs><path id="c" d="M92,25.78C92,13.75,79.46,4,64,4s-28,9.75-28,21.78v43.56h0.03c-0.02,0.3-0.03,0.59-0.03,0.89 C36,82.25,48.54,92,64,92s28-9.75,28-21.78c0-0.3-0.01-0.59-0.03-0.89H92V25.78z"/></defs><clipPath id="b"><use xlink:href="#c"/></clipPath><g clip-path="url(#b)" fill="#9E9E9E"><circle cx="36" cy="12.16" r="2" opacity=".2"/><circle cx="36" cy="20.16" r="2" opacity=".2"/><circle cx="36" cy="28.16" r="2" opacity=".2"/><circle cx="36" cy="36.16" r="2" opacity=".2"/><circle cx="36" cy="44.16" r="2" opacity=".2"/><circle cx="36" cy="52.16" r="2" opacity=".2"/><circle cx="36" cy="60.16" r="2" opacity=".2"/><circle cx="36" cy="68.16" r="2" opacity=".2"/><circle cx="36" cy="76.16" r="2" opacity=".2"/><circle cx="44" cy="16.16" r="2" opacity=".2"/><circle cx="44" cy="24.16" r="2" opacity=".2"/><circle cx="44" cy="32.16" r="2" opacity=".2"/><circle cx="44" cy="40.16" r="2" opacity=".2"/><circle cx="44" cy="48.16" r="2" opacity=".2"/><circle cx="44" cy="56.16" r="2" opacity=".2"/><circle cx="44" cy="64.16" r="2" opacity=".2"/><circle cx="44" cy="72.16" r="2" opacity=".2"/><circle cx="44" cy="80.16" r="2" opacity=".2"/><circle cx="52" cy="12.16" r="2" opacity=".2"/><circle cx="52" cy="20.16" r="2" opacity=".2"/><circle cx="52" cy="28.16" r="2" opacity=".2"/><circle cx="52" cy="36.16" r="2" opacity=".2"/><circle cx="52" cy="44.16" r="2" opacity=".2"/><circle cx="52" cy="52.16" r="2" opacity=".2"/><circle cx="52" cy="60.16" r="2" opacity=".2"/><circle cx="52" cy="68.16" r="2" opacity=".2"/><circle cx="52" cy="76.16" r="2" opacity=".2"/><circle cx="60" cy="16.16" r="2" opacity=".2"/><circle cx="60" cy="24.16" r="2" opacity=".2"/><circle cx="60" cy="32.16" r="2" opacity=".2"/><circle cx="60" cy="40.16" r="2" opacity=".2"/><circle cx="60" cy="48.16" r="2" opacity=".2"/><circle cx="60" cy="56.16" r="2" opacity=".2"/><circle cx="60" cy="64.16" r="2" opacity=".2"/><circle cx="60" cy="72.16" r="2" opacity=".2"/><circle cx="60" cy="80.16" r="2" opacity=".2"/><circle cx="68" cy="12.16" r="2" opacity=".2"/><circle cx="68" cy="20.16" r="2" opacity=".2"/><circle cx="68" cy="28.16" r="2" opacity=".2"/><circle cx="68" cy="36.16" r="2" opacity=".2"/><circle cx="68" cy="44.16" r="2" opacity=".2"/><circle cx="68" cy="52.16" r="2" opacity=".2"/><circle cx="68" cy="60.16" r="2" opacity=".2"/><circle cx="68" cy="68.16" r="2" opacity=".2"/><circle cx="68" cy="76.16" r="2" opacity=".2"/><circle cx="76" cy="16.16" r="2" opacity=".2"/><circle cx="76" cy="24.16" r="2" opacity=".2"/><circle cx="76" cy="32.16" r="2" opacity=".2"/><circle cx="76" cy="40.16" r="2" opacity=".2"/><circle cx="76" cy="48.16" r="2" opacity=".2"/><circle cx="76" cy="56.16" r="2" opacity=".2"/><circle cx="76" cy="64.16" r="2" opacity=".2"/><circle cx="76" cy="72.16" r="2" opacity=".2"/><circle cx="76" cy="80.16" r="2" opacity=".2"/><circle cx="84" cy="12.16" r="2" opacity=".2"/><circle cx="84" cy="20.16" r="2" opacity=".2"/><circle cx="84" cy="28.16" r="2" opacity=".2"/><circle cx="84" cy="36.16" r="2" opacity=".2"/><circle cx="84" cy="44.16" r="2" opacity=".2"/><circle cx="84" cy="52.16" r="2" opacity=".2"/><circle cx="84" cy="60.16" r="2" opacity=".2"/><circle cx="84" cy="68.16" r="2" opacity=".2"/><circle cx="84" cy="76.16" r="2" opacity=".2"/><circle cx="92" cy="16.16" r="2" opacity=".2"/><circle cx="92" cy="24.16" r="2" opacity=".2"/><circle cx="92" cy="32.16" r="2" opacity=".2"/><circle cx="92" cy="40.16" r="2" opacity=".2"/><circle cx="92" cy="48.16" r="2" opacity=".2"/><circle cx="92" cy="56.16" r="2" opacity=".2"/><circle cx="92" cy="64.16" r="2" opacity=".2"/><circle cx="92" cy="72.16" r="2" opacity=".2"/><circle cx="92" cy="80.16" r="2" opacity=".2"/></g><radialGradient id="a" cx="64" cy="61.167" r="31.894" gradientUnits="userSpaceOnUse"><stop stop-color="#B0BEC5" offset="0"/><stop stop-color="#A8B7BF" offset=".1888"/><stop stop-color="#91A4AE" offset=".4874"/><stop stop-color="#78909C" offset=".7436"/><stop stop-color="#607D8B" offset="1"/></radialGradient><path d="m36 69.33v0.89c0 12.03 12.54 21.78 28 21.78s28-9.75 28-21.78v-0.89h-56z" fill="url(#a)"/><rect x="36" y="69" width="56" height="2" fill="#CFD8DC"/><path d="m39.02 69.49c-0.01 0.24-0.02 0.49-0.02 0.73 0 10.36 11.21 18.78 25 18.78s25-8.42 25-18.78c0-0.25-0.01-0.49-0.02-0.73v-0.35h-49.96v0.35z" fill="none"/><path d="M64,7c-13.79,0-25,8.42-25,18.78l0.02,43.36h49.95L89,25.78C89,15.42,77.79,7,64,7z" fill="none"/><path d="M39,25.78C39,15.42,50.21,7,64,7s25,8.42,25,18.78l-0.02,43.36H92V25.78 C92,13.75,79.46,4,64,4s-28,9.75-28,21.78v43.36h3.02L39,25.78z" fill="#eee" opacity=".2"/><path d="M92,69.14h-3.02l0,0.35c0.01,0.24,0.02,0.49,0.02,0.73C89,80.58,77.79,89,64,89 s-25-8.42-25-18.78c0-0.25,0.01-0.49,0.02-0.73l0-0.35H36v0.19h0.03c-0.02,0.3-0.03,0.59-0.03,0.89C36,82.25,48.54,92,64,92 s28-9.75,28-21.78c0-0.3-0.01-0.59-0.03-0.89H92V69.14z" fill="#424242" opacity=".2"/></svg>

<svg width="128" height="128" style="enable-background:new 0 0 128 128;" xmlns="http://www.w3.org/2000/svg" xmlns:xlink="http://www.w3.org/1999/xlink">
  <radialGradient id="SVGID_1_" cx="64" cy="7.6667" gradientUnits="userSpaceOnUse" r="63.2405">
    <stop offset="0" style="stop-color:#9E9E9E"/>
    <stop offset="0.2253" style="stop-color:#999999"/>
    <stop offset="0.4734" style="stop-color:#8C8C8C"/>
    <stop offset="0.7315" style="stop-color:#767676"/>
    <stop offset="0.7448" style="stop-color:#757575"/>
    <stop offset="0.8952" style="stop-color:#6B6B6B"/>
    <stop offset="1" style="stop-color:#616161"/>
  </radialGradient>
  <path d="M92,25.78C92,13.75,79.46,4,64,4s-28,9.75-28,21.78v43.56h0.03c-0.02,0.3-0.03,0.59-0.03,0.89 C36,82.25,48.54,92,64,92s28-9.75,28-21.78c0-0.3-0.01-0.59-0.03-0.89H92V25.78z" style="fill:url(#SVGID_1_);"/>
  <path d="M76.76,108H51.24c-1.79,0-3.24-1.45-3.24-3.24v-7.52c0-1.79,1.45-3.24,3.24-3.24h25.52 c1.79,0,3.24,1.45,3.24,3.24v7.52C80,106.55,78.55,108,76.76,108z" style="fill:#546E7A;"/>
  <radialGradient id="SVGID_2_" cx="63.6667" cy="86.8333" gradientUnits="userSpaceOnUse" r="25.5544">
    <stop offset="0" style="stop-color:#B0BEC5"/>
    <stop offset="0.1888" style="stop-color:#A8B7BF"/>
    <stop offset="0.4874" style="stop-color:#91A4AE"/>
    <stop offset="0.7436" style="stop-color:#78909C"/>
    <stop offset="1" style="stop-color:#607D8B"/>
  </radialGradient>
  <path d="M72,112H56c-2.21,0-4-1.79-4-4V88c0-2.21,1.79-4,4-4h16c2.21,0,4,1.79,4,4v20 C76,110.21,74.21,112,72,112z" style="fill:url(#SVGID_2_);"/>
  <g style="opacity:0.2;">
    <path d="M72,87c0.55,0,1,0.45,1,1v20c0,0.55-0.45,1-1,1H56c-0.55,0-1-0.45-1-1V88c0-0.55,0.45-1,1-1H72 M72,84H56c-2.21,0-4,1.79-4,4v20c0,2.21,1.79,4,4,4h16c2.21,0,4-1.79,4-4V88C76,85.79,74.21,84,72,84L72,84z" style="fill:#424242;"/>
  </g>
  <radialGradient id="SVGID_3_" cx="64" cy="123.8333" gradientUnits="userSpaceOnUse" r="32.5273">
    <stop offset="0" style="stop-color:#90A4AE"/>
    <stop offset="0.2042" style="stop-color:#8BA0AB"/>
    <stop offset="0.4371" style="stop-color:#7E95A1"/>
    <stop offset="0.6833" style="stop-color:#678290"/>
    <stop offset="0.7436" style="stop-color:#607D8B"/>
    <stop offset="0.9931" style="stop-color:#546E7A"/>
  </radialGradient>
  <path d="M93.03,118L70,115.75v-14.53c0-0.68-0.55-1.22-1.22-1.22h-9.55c-0.68,0-1.22,0.55-1.22,1.22 v14.53L34.97,118c-2.27,0.28-2.97,3.71-2.97,6v0h27.22h9.55H96v0C96,121.71,95.3,118.28,93.03,118z" style="fill:url(#SVGID_3_);"/>
  <g style="opacity:0.2;">
    <path d="M67,103v12.75v2.72l2.71,0.26l22.68,2.22c0.01,0.02,0.02,0.03,0.03,0.05H68.78h-9.55H35.58 c0.01-0.02,0.02-0.03,0.03-0.05l22.68-2.22l2.71-0.26v-2.72V103H67 M68.78,100h-9.55c-0.68,0-1.22,0.55-1.22,1.22v14.53L34.97,118 c-2.27,0.28-2.97,3.71-2.97,6v0h27.22h9.55H96v0c0-2.28-0.7-5.72-2.97-6L70,115.75v-14.53C70,100.55,69.45,100,68.78,100 L68.78,100z" style="fill:#424242;"/>
  </g>
  <g>
    <defs>
      <path id="SVGID_4_" d="M92,25.78C92,13.75,79.46,4,64,4s-28,9.75-28,21.78v43.56h0.03c-0.02,0.3-0.03,0.59-0.03,0.89 C36,82.25,48.54,92,64,92s28-9.75,28-21.78c0-0.3-0.01-0.59-0.03-0.89H92V25.78z"/>
    </defs>
    <clipPath id="SVGID_5_">
      <use style="overflow:visible;" xlink:href="#SVGID_4_"/>
    </clipPath>
    <g style="clip-path:url(#SVGID_5_);">
      <circle cx="36" cy="12.16" r="2" style="opacity:0.2;fill:#9E9E9E;"/>
      <circle cx="36" cy="20.16" r="2" style="opacity:0.2;fill:#9E9E9E;"/>
      <circle cx="36" cy="28.16" r="2" style="opacity:0.2;fill:#9E9E9E;"/>
      <circle cx="36" cy="36.16" r="2" style="opacity:0.2;fill:#9E9E9E;"/>
      <circle cx="36" cy="44.16" r="2" style="opacity:0.2;fill:#9E9E9E;"/>
      <circle cx="36" cy="52.16" r="2" style="opacity:0.2;fill:#9E9E9E;"/>
      <circle cx="36" cy="60.16" r="2" style="opacity:0.2;fill:#9E9E9E;"/>
      <circle cx="36" cy="68.16" r="2" style="opacity:0.2;fill:#9E9E9E;"/>
      <circle cx="36" cy="76.16" r="2" style="opacity:0.2;fill:#9E9E9E;"/>
      <circle cx="44" cy="16.16" r="2" style="opacity:0.2;fill:#9E9E9E;"/>
      <circle cx="44" cy="24.16" r="2" style="opacity:0.2;fill:#9E9E9E;"/>
      <circle cx="44" cy="32.16" r="2" style="opacity:0.2;fill:#9E9E9E;"/>
      <circle cx="44" cy="40.16" r="2" style="opacity:0.2;fill:#9E9E9E;"/>
      <circle cx="44" cy="48.16" r="2" style="opacity:0.2;fill:#9E9E9E;"/>
      <circle cx="44" cy="56.16" r="2" style="opacity:0.2;fill:#9E9E9E;"/>
      <circle cx="44" cy="64.16" r="2" style="opacity:0.2;fill:#9E9E9E;"/>
      <circle cx="44" cy="72.16" r="2" style="opacity:0.2;fill:#9E9E9E;"/>
      <circle cx="44" cy="80.16" r="2" style="opacity:0.2;fill:#9E9E9E;"/>
      <circle cx="52" cy="12.16" r="2" style="opacity:0.2;fill:#9E9E9E;"/>
      <circle cx="52" cy="20.16" r="2" style="opacity:0.2;fill:#9E9E9E;"/>
      <circle cx="52" cy="28.16" r="2" style="opacity:0.2;fill:#9E9E9E;"/>
      <circle cx="52" cy="36.16" r="2" style="opacity:0.2;fill:#9E9E9E;"/>
      <circle cx="52" cy="44.16" r="2" style="opacity:0.2;fill:#9E9E9E;"/>
      <circle cx="52" cy="52.16" r="2" style="opacity:0.2;fill:#9E9E9E;"/>
      <circle cx="52" cy="60.16" r="2" style="opacity:0.2;fill:#9E9E9E;"/>
      <circle cx="52" cy="68.16" r="2" style="opacity:0.2;fill:#9E9E9E;"/>
      <circle cx="52" cy="76.16" r="2" style="opacity:0.2;fill:#9E9E9E;"/>
      <circle cx="60" cy="16.16" r="2" style="opacity:0.2;fill:#9E9E9E;"/>
      <circle cx="60" cy="24.16" r="2" style="opacity:0.2;fill:#9E9E9E;"/>
      <circle cx="60" cy="32.16" r="2" style="opacity:0.2;fill:#9E9E9E;"/>
      <circle cx="60" cy="40.16" r="2" style="opacity:0.2;fill:#9E9E9E;"/>
      <circle cx="60" cy="48.16" r="2" style="opacity:0.2;fill:#9E9E9E;"/>
      <circle cx="60" cy="56.16" r="2" style="opacity:0.2;fill:#9E9E9E;"/>
      <circle cx="60" cy="64.16" r="2" style="opacity:0.2;fill:#9E9E9E;"/>
      <circle cx="60" cy="72.16" r="2" style="opacity:0.2;fill:#9E9E9E;"/>
      <circle cx="60" cy="80.16" r="2" style="opacity:0.2;fill:#9E9E9E;"/>
      <circle cx="68" cy="12.16" r="2" style="opacity:0.2;fill:#9E9E9E;"/>
      <circle cx="68" cy="20.16" r="2" style="opacity:0.2;fill:#9E9E9E;"/>
      <circle cx="68" cy="28.16" r="2" style="opacity:0.2;fill:#9E9E9E;"/>
      <circle cx="68" cy="36.16" r="2" style="opacity:0.2;fill:#9E9E9E;"/>
      <circle cx="68" cy="44.16" r="2" style="opacity:0.2;fill:#9E9E9E;"/>
      <circle cx="68" cy="52.16" r="2" style="opacity:0.2;fill:#9E9E9E;"/>
      <circle cx="68" cy="60.16" r="2" style="opacity:0.2;fill:#9E9E9E;"/>
      <circle cx="68" cy="68.16" r="2" style="opacity:0.2;fill:#9E9E9E;"/>
      <circle cx="68" cy="76.16" r="2" style="opacity:0.2;fill:#9E9E9E;"/>
      <circle cx="76" cy="16.16" r="2" style="opacity:0.2;fill:#9E9E9E;"/>
      <circle cx="76" cy="24.16" r="2" style="opacity:0.2;fill:#9E9E9E;"/>
      <circle cx="76" cy="32.16" r="2" style="opacity:0.2;fill:#9E9E9E;"/>
      <circle cx="76" cy="40.16" r="2" style="opacity:0.2;fill:#9E9E9E;"/>
      <circle cx="76" cy="48.16" r="2" style="opacity:0.2;fill:#9E9E9E;"/>
      <circle cx="76" cy="56.16" r="2" style="opacity:0.2;fill:#9E9E9E;"/>
      <circle cx="76" cy="64.16" r="2" style="opacity:0.2;fill:#9E9E9E;"/>
      <circle cx="76" cy="72.16" r="2" style="opacity:0.2;fill:#9E9E9E;"/>
      <circle cx="76" cy="80.16" r="2" style="opacity:0.2;fill:#9E9E9E;"/>
      <circle cx="84" cy="12.16" r="2" style="opacity:0.2;fill:#9E9E9E;"/>
      <circle cx="84" cy="20.16" r="2" style="opacity:0.2;fill:#9E9E9E;"/>
      <circle cx="84" cy="28.16" r="2" style="opacity:0.2;fill:#9E9E9E;"/>
      <circle cx="84" cy="36.16" r="2" style="opacity:0.2;fill:#9E9E9E;"/>
      <circle cx="84" cy="44.16" r="2" style="opacity:0.2;fill:#9E9E9E;"/>
      <circle cx="84" cy="52.16" r="2" style="opacity:0.2;fill:#9E9E9E;"/>
      <circle cx="84" cy="60.16" r="2" style="opacity:0.2;fill:#9E9E9E;"/>
      <circle cx="84" cy="68.16" r="2" style="opacity:0.2;fill:#9E9E9E;"/>
      <circle cx="84" cy="76.16" r="2" style="opacity:0.2;fill:#9E9E9E;"/>
      <circle cx="92" cy="16.16" r="2" style="opacity:0.2;fill:#9E9E9E;"/>
      <circle cx="92" cy="24.16" r="2" style="opacity:0.2;fill:#9E9E9E;"/>
      <circle cx="92" cy="32.16" r="2" style="opacity:0.2;fill:#9E9E9E;"/>
      <circle cx="92" cy="40.16" r="2" style="opacity:0.2;fill:#9E9E9E;"/>
      <circle cx="92" cy="48.16" r="2" style="opacity:0.2;fill:#9E9E9E;"/>
      <circle cx="92" cy="56.16" r="2" style="opacity:0.2;fill:#9E9E9E;"/>
      <circle cx="92" cy="64.16" r="2" style="opacity:0.2;fill:#9E9E9E;"/>
      <circle cx="92" cy="72.16" r="2" style="opacity:0.2;fill:#9E9E9E;"/>
      <circle cx="92" cy="80.16" r="2" style="opacity:0.2;fill:#9E9E9E;"/>
    </g>
  </g>
  <radialGradient id="SVGID_6_" cx="64.0002" cy="61.1667" gradientUnits="userSpaceOnUse" r="31.8943">
    <stop offset="0" style="stop-color:#B0BEC5"/>
    <stop offset="0.1888" style="stop-color:#A8B7BF"/>
    <stop offset="0.4874" style="stop-color:#91A4AE"/>
    <stop offset="0.7436" style="stop-color:#78909C"/>
    <stop offset="1" style="stop-color:#607D8B"/>
  </radialGradient>
  <path d="M36,69.33c0,0,0,0.59,0,0.89c0,12.03,12.54,21.78,28,21.78s28-9.75,28-21.78 c0-0.3,0-0.89,0-0.89H36z" style="fill:url(#SVGID_6_);"/>
  <rect height="2" style="fill:#CFD8DC;" width="56" x="36" y="69"/>
  <g>
    <path d="M39.02,69.49C39.01,69.73,39,69.98,39,70.22C39,80.58,50.21,89,64,89s25-8.42,25-18.78 c0-0.25-0.01-0.49-0.02-0.73l0-0.35H39.02L39.02,69.49z" style="fill:none;"/>
    <path d="M64,7c-13.79,0-25,8.42-25,18.78l0.02,43.36h49.95L89,25.78C89,15.42,77.79,7,64,7z" style="fill:none;"/>
    <path d="M39,25.78C39,15.42,50.21,7,64,7s25,8.42,25,18.78l-0.02,43.36H92V25.78 C92,13.75,79.46,4,64,4s-28,9.75-28,21.78v43.36h3.02L39,25.78z" style="opacity:0.2;fill:#EEEEEE;"/>
    <path d="M92,69.14h-3.02l0,0.35c0.01,0.24,0.02,0.49,0.02,0.73C89,80.58,77.79,89,64,89 s-25-8.42-25-18.78c0-0.25,0.01-0.49,0.02-0.73l0-0.35H36v0.19h0.03c-0.02,0.3-0.03,0.59-0.03,0.89C36,82.25,48.54,92,64,92 s28-9.75,28-21.78c0-0.3-0.01-0.59-0.03-0.89H92V69.14z" style="opacity:0.2;fill:#424242;"/>
  </g>
</svg>
